src/pos-icons/anvil.svg

<svg height="24" viewBox="0 0 24 24" width="24" xmlns="http://www.w3.org/2000/svg"><path d="m9 5v5c4.03 2.47-.56 4.97-3 6v3h15v-3c-6.41-2.73-3.53-7 1-8v-3zm-7 1c.81 2.13 2.42 3.5 5 4v-4z"/></svg>

<?xml version="1.0" encoding="UTF-8"?><!DOCTYPE svg PUBLIC "-//W3C//DTD SVG 1.1//EN" "http://www.w3.org/Graphics/SVG/1.1/DTD/svg11.dtd"><svg xmlns="http://www.w3.org/2000/svg" xmlns:xlink="http://www.w3.org/1999/xlink" version="1.1" id="mdi-anvil" width="24" height="24" viewBox="0 0 24 24"><path d="M9,5V10C13.03,12.47 8.44,14.97 6,16V19H21V16C14.59,13.27 17.47,9 22,8V5H9M2,6C2.81,8.13 4.42,9.5 7,10V6H2Z" /></svg>
